X:1
T: The Iona Strathspey
C:Muriel A Johnstone
R:Strathspey
%Q: 128
K:C
M:4/4
L:1/16
|:ef|gg3 e3c G3c A3c|G3c A3c cBAG G3e|gg3 e3c G3c A3f|e3d c3A Bcd2 d2ef|
gg3 e3c G3c A3c|G3c A3c cBAG G2ef|gg3 a3g ec3 c3G|ABc2 defg ec3 c2:|
|:B2|cc3 e4 f4 e3d|cA3 A3^f gG3 G3B|cc3 e4 f4 edcB|A3B c3d ed3 d3e|
cc3 e4 f4 e3d|cA3 A3c cBAG G3e|gg3 a3g ec3 c3G|ABc2 defg ec3 c2:|
